!!!!SEGMENT: pl-wn--mus-2041-6_zelenski-wladyslaw--ballada-klawiga.krn
!!!cenid: 18xx:3659
!!!COM: Żeleński, Władysław
!!!COM-rismID: pe41024455
!!!CDT: 1837/07/06-1921/01/23
!!!CNT: Polish
!!!OTL: Ballada Klawiga
!!!PDT:
!!!AGN:
!!!SMS-siglum: PL-Wn
!!!SMS-shelfmark: Mus.2041/6
!!!SMS-shelfwork: W
!!!SMS-variant:
!!!SMS-altvar:
!!!NIFC-rismSourceID:
!!!NIFC-islandoraID:
!!!URL-pdf-islandora:
!!!URL-scan: https://polona.pl/item/ballada-klawiga,NjU5MjI0NzU/0 @EN{Scan on Polona} @PL{Skany w portalu Polona}
!!!ONB-nifc:
!!!OMD: Andante quasi Allegretto.
!!!AIN: 1 piano 1 vox
!!!key: e-
**kern	**kern	**dynam	**kern	**text	**dynam
*part2	*part2	*part2	*part1	*part1	*part1
*staff3	*staff2	*	*staff1	*staff1	*
*I"Fortepian	*I"Fortepian	*	*I"Spiew.	*	*
*Ipiano	*Ipiano	*	*Ivox	*	*
*ICklav	*ICklav	*	*ICvox	*	*
*IGacmp	*IGacmp	*	*IGsolo	*	*
*clefF4	*clefG2	*	*clefG2	*	*
*k[b-e-a-d-g-c-]	*k[b-e-a-d-g-c-]	*	*k[b-e-a-d-g-c-]	*	*
*e-:	*e-:	*	*e-:	*	*
*M6/8	*M6/8	*	*M6/8	*	*
=1	=1	=1	=1	=1	=1
*	*^	*	*	*	*
*xywh-#2:105,976,5872,1321	*xywh-#2:105,976,5872,1321	*xywh-#2:105,976,5872,1321	*	*xywh-#2:88,34,5987,1105	*	*
!LO:TX:b:i:t=Fag.	!	!	!	!	!	!
[2.EE-/ [2.BB-	4r	4ryy	pp	2.r	.	.
*	*Xtuplet	*	*	*	*	*
.	(24bb-/LL	(8gg-\	.	.	.	.
.	24ccc-/	.	.	.	.	.
.	24bb-/JJ	.	.	.	.	.
.	4aa-/)	4ff\)	.	.	.	.
.	(24gg-/LL	(8ee-\	.	.	.	.
.	24aa-/	.	.	.	.	.
.	24gg-/JJ	.	.	.	.	.
=2	=2	=2	=2	=2	=2	=2
4.EE-/_ 4.BB-_	4ff/)	4dd-\)	.	2.r	.	.
.	(24ee-/LL	(8cc-\	.	.	.	.
.	24ff/	.	.	.	.	.
.	24ee-/JJ	.	.	.	.	.
4EE-/] 4BB-]	[4.gg-/)	[4.b-\)	.	.	.	.
8EE-/ 8BB-	.	.	.	.	.	.
=3	=3	=3	=3	=3	=3	=3
[2.EE-/ [2.BB-	8b-\] 8gg-\]	8ryy	.	2.r	.	.
.	8r	8r	.	.	.	.
.	(24b-/LL	(8g-\	.	.	.	.
.	24cc-/	.	.	.	.	.
.	24b-/JJ	.	.	.	.	.
.	4a-/)	4f\)	.	.	.	.
.	(24g-/LL	(8e-\	.	.	.	.
.	24a-/	.	.	.	.	.
.	24g-/JJ	.	.	.	.	.
!!LO:LB:g=original
=4	=4	=4	=4	=4	=4	=4
*xywh-#2:530,2904,5353,1099	*xywh-#2:530,2904,5353,1099	*xywh-#2:530,2904,5353,1099	*	*xywh-#2:533,2272,5421,559	*	*
4.EE-/_ 4.BB-_	4f/)	4d-\)	.	2.r	.	.
.	(24e-/LL	(8c-\	.	.	.	.
.	24f/	.	.	.	.	.
.	24e-/JJ	.	.	.	.	.
4EE-/] 4BB-]	[4.B-\) [4.g-/)	4.ryy	.	.	.	.
8EE-/ 8BB-	.	.	.	.	.	.
=5	=5	=5	=5	=5	=5	=5
[4.EE-/ [4.BB-	8B-\] 8g-/]	8ryy	.	2.r	.	.
.	8r	8r	.	.	.	.
.	(24e-/LL	8c-\	<	.	.	.
.	24f/	.	.	.	.	.
.	24e-/JJ	.	.	.	.	.
4EE-/] 4BB-]	4A-/ 4a-/	4.ryy	.	.	.	.
8EE-/ 8BB-	8e-/ 8g-/	.	[	.	.	.
=6	=6	=6	=6	=6	=6	=6
[4.EE-/ [4.BB-	4d-/) 4f/	4ryy	.	2.r	.	.
.	(24e-/LL	8c-\	<	.	.	.
.	24f/	.	.	.	.	.
.	24e-/JJ	.	.	.	.	.
4EE-/] 4BB-]	4A-/ 4a-/	4.ryy	[	.	.	.
8EE-/ 8BB-	8e-/ 8g-/	.	.	.	.	.
=7	=7	=7	=7	=7	=7	=7
[4.EE-/ [4.BB-	4d-/) 4f	4ryy	.	2.r	.	.
.	(24e-/LL	8c-\	<	.	.	.
.	24f/	.	.	.	.	.
.	24e-/JJ	.	.	.	.	.
4EE-/] 4BB-]	[4.B-/) [4.b-	4.ryy	.	.	.	.
8EE-/ 8BB-	.	.	.	.	.	.
!!LO:LB:g=original
=8	=8	=8	=8	=8	=8	=8
*xywh-#2:563,4536,5333,1126	*xywh-#2:563,4536,5333,1126	*xywh-#2:563,4536,5333,1126	*	*xywh-#2:620,3929,5279,748	*	*
4EE-/ 4BB-	(4.b-/_	4.B-\_	[	2.r	.	.
8EE-/ 8BB-	.	.	.	.	.	.
4EE-/ 4BB-	8dn/L 8b-]	4B-\]	>	.	.	.
.	8f/)	.	.	.	.	.
.	8qa-/	.	]	.	.	.
8EE-/ 8BB-	(>8g-/J	8A-\	.	.	.	.
*	*v	*v	*	*	*	*
=9	=9	=9	=9	=9	=9
8EE-/ 8BB-	8G-/) 8B- 8e-	pp	2.r	.	.
8r	8r	.	.	.	.
8EE-/ 8E-	8B-/ 8e- 8g-	.	.	.	.
8EE-/ 8E-	8B-/ 8e- 8g-	.	.	.	.
8r	8r	.	.	.	.
8EE-/ 8E-	8B-/ 8e- 8g-	.	.	.	.
=10	=10	=10	=10	=10	=10
8EE-/ 8E-	8B-/ 8e- 8g-	.	4r	.	.
8r	8r	.	.	.	.
8EE-/ 8E-	8B-/ 8e- 8g-	.	8r	.	.
8EE-/ 8E-	8B-/ 8e- 8g-	.	4r	.	.
8r	8r	.	.	.	.
!	!	!	!	!	!LO:DY:a
8EE-/ 8E-	8B-/ 8e- 8g-	.	8e-/	Już	p
=11	=11	=11	=11	=11	=11
8EE-/ 8E-	8A-/ 8e- 8f	.	[4.f/	trze-	.
8r	8r	.	.	.	.
8EE-/ 8E-	8A-/ 8e- 8f	.	.	.	.
8EE-/ 8E-	8A-/ 8e- 8f	.	8f/L]	.	.
8r	8r	.	8g-/J	.	.
8EE-/ 8E-	8A-/ 8e- 8f	.	8a-/	-cią	.
!!LO:LB:g=original
=12	=12	=12	=12	=12	=12
*xywh-#2:503,6323,5407,1105	*xywh-#2:503,6323,5407,1105	*	*xywh-#2:567,5637,5306,802	*	*
8EE-/ 8E-	8B-/ 8e- 8g-	.	4.b-\	zi-	.
8r	8r	.	.	.	.
8EE-/ 8E-	8B-/ 8e- 8g-	.	.	.	.
8EE-/ 8E-	8B-/ 8e- 8g-	.	4b-\	-mę	.
8r	8r	.	.	.	.
8EE-/ 8E-	8B-/ 8e- 8g-	.	8e-/	już	.
=13	=13	=13	=13	=13	=13
8EE-/ 8E-	8A-/ 8e- 8f	.	[4.f/	trze-	.
8r	8r	.	.	.	.
8EE-/ 8E-	8A-/ 8e- 8f	.	.	.	.
8EE-/ 8E-	8A-/ 8e- 8f	.	8f/L]	.	.
8r	8r	.	8g-/J	.	.
8EE-/ 8E-	8A-/ 8e- 8f	.	8a-/	-cie	.
=14	=14	=14	=14	=14	=14
*	*^	*	*	*	*
*	*	*xywh-#2:503,6323,5407,1105	*	*	*	*
8EE-/ 8E-	8B-/ 8e- 8g-	8ryy	.	4.b-\	la-	.
8r	8r	8ryy	.	.	.	.
8EE-/ 8E-	8B-/ 8e- 8g-	8ryy	.	.	.	.
!	!LO:TX:a:i:t=dolce	!	!	!	!	!
8DD-/ 8D-	(4.G-/	8E-\	.	4b-\	-to,	.
8r	.	8r	.	.	.	.
8DD-/ 8D-	.	8E-\	.	8r	.	.
=15	=15	=15	=15	=15	=15	=15
8CC-/ 8C-	4.e-/	8G-\	.	[4.b-\	Wier-	.
8r	.	8r	.	.	.	.
8CC-/ 8C-	.	8G-\	.	.	.	.
8CC-/ 8C-	4.e--/	8G-\	.	8b-\]	.	.
8r	.	8r	.	8a-/	-na	.
8CC-/ 8C-	.	8G-\	.	8g-/	Klo-	.
!!LO:PB:g=original
=16	=16	=16	=16	=16	=16	=16
*xywh-#3:514,1129,5352,1097	*xywh-#3:514,1129,5352,1097	*xywh-#3:514,1129,5352,1097	*	*xywh-#3:597,424,5265,860	*	*
8GGG-/ 8GG-	4.d-/	8B-\	.	4.b-\	-ryn-	.
8r	.	8r	.	.	.	.
8GG-/	.	8B-\	.	.	.	.
8GG-/	(4.g-/)	8B-\	.	4b-\	-da	.
8r	.	8r	.	.	.	.
8GG-/ 8G-	.	8B-\ 8d-	.	8r	.	.
=17	=17	=17	=17	=17	=17	=17
8AA-/ 8E-	4.b-/)	8c-\	.	[4.dd-\	pła-	.
8r	.	8r	.	.	.	.
8AA-/ 8E-	.	8c-\	.	.	.	.
!	!	!	!	!	!	!LO:HP:a
8FF/ 8E-	[4.a-/	8c-\	.	8dd-\]	.	<
8r	.	8r	.	8cc-\	-cze	.
8FF/ 8E-	.	8c-\	.	8e-/	za	[[
=18	=18	=18	=18	=18	=18	=18
8BB-/ 8Dn	(4.a-/_	8A-\ 8B-	.	4.cc-\	kra-	.
8r	.	8r	.	.	.	.
8BB-/ 8D	.	8A-\ 8B-	.	.	.	.
8BB-/ 8D	8a-/L]	8B-\	.	4b-\	-tą.	.
8r	8g-/)	8r	.	.	.	.
8BB-\ 8A-	8f'/J	8dn\	.	8r	.	.
=19	=19	=19	=19	=19	=19	=19
!	!	!	!LO:HP:b:t=cresc. un poco	!	!	!LO:HP:a:t=cresc. un poco
8C-\ 8G-	(4.e-/	4r	<	[4.e-/	Wię-	<
8r	.	.	.	.	.	.
8C-/ 8E-	.	8G-\	.	.	.	.
8BB-/ 8E-	(4.d-/)	8G-\	.	8e-/]	.	.
8r	.	8r	.	8f/	-dną	.
8BB-/ 8E-	.	8G-\	.	8g-/	jak	.
!!LO:LB:g=original
=20	=20	=20	=20	=20	=20	=20
*xywh-#3:553,2947,5374,987	*xywh-#3:553,2947,5374,987	*xywh-#3:553,2947,5374,987	*	*xywh-#3:530,2233,5332,766	*	*
8AA-/ 8E-	(4.c-/)	8A-\	.	4.a-/	ró-	.
8r	.	8r	.	.	.	.
8AA-/ 8E-	.	8A-\	.	.	.	.
4AA-/	(4.e-/)	4.A-\ 4.c-	.	4g-/	-że	.
8AA-/	.	.	.	8g-/	dzie-	.
=21	=21	=21	=21	=21	=21	=21
4D-\ 4F	[4.d-/)	4A-\	.	[4.f/	-wi-	.
8D-\ 8F	.	8A-\	.	.	.	.
8C-\ 8F	8d-/L]	8A-\	.	8f/L]	.	.
8r	8e-/	8r	.	8g-/J	.	.
8C-\ 8A-	8f/J	8d-\	.	8a-/	-cze	.
=22	=22	=22	=22	=22	=22	=22
8BB-\ 8B-	(4.f/	8d-\	.	(4dd-\	wdzię-	.
8r	.	8r	.	.	.	.
8BB-\ 8B-	.	8d-\	.	8b-\)	.	.
8BB-\ 8B-	4g-/)	8d-\	.	8g-/	-ki,	.
8r	.	8r	.	8r	.	.
8BB-\ 8B-	8r	8d-\	.	8r	.	.
*	*v	*v	*	*	*	*
=23	=23	=23	=23	=23	=23
8F-X\ 8G-	8r	.	[4.g-/	Ty-	.
8r	(<8d-/L	.	.	.	.
8F-\ 8G-	8c-/J	.	.	.	.
8F-\ 8G-	8B-/L	.	8g-/]	.	.
8r	8d-/	.	8a-/	-ran	.
8F-\ 8G-	8g-/J)	.	8b-\	chce	.
!!LO:LB:g=original
=24	=24	=24	=24	=24	=24
*xywh-#3:570,4503,5246,1220	*xywh-#3:570,4503,5246,1220	*	*xywh-#3:563,3827,5299,813	*	*
8E-\ 8G-	(4g-/	.	[4.cc-\	ser-	.
8r	.	.	.	.	.
8E-\ 8G-	8e-/	.	.	.	.
8E-\ 8G-	4c-/)	.	8cc-\]	.	.
8r	.	.	8b-\	-ca	.
8E-\ 8G-	8B-/	.	8cc-\	i	.
=25	=25	=25	=25	=25	=25
!	!	!	!	!	!LO:HP:a
8FF/ 8E-	(2.Antt/	>	([4.ee-\	rę-	>
8r	.	.	.	.	.
8FF/ 8E-	.	.	.	.	.
8FF/ 8E-	.	]	8ee-\]	.	.
8r	.	.	4ddn\)	.	]]
8FF/ 8E-	.	.	.	.	.
.	16qqGn/LL	.	.	.	.
.	16qqA/JJ)	.	.	.	.
=26	=26	=26	=26	=26	=26
*	*^	*	*	*	*
*	*	*xywh-#3:570,4503,5246,1220	*	*	*	*
[2.BBB-/ [2.BB-	8B-/	8ryy	.	8b-\	-ki	.
.	8r	8ryy	.	8r	.	.
.	(24ff/LL	8dd-\	p	8r	.	.
.	24gg-/	.	.	.	.	.
.	24ff/JJ	.	.	.	.	.
.	4ee-/)	4cc-\	.	4r	.	.
.	(24dd-/LL	8b-\	.	8r	.	.
.	24ee-/	.	.	.	.	.
.	24dd-/JJ	.	.	.	.	.
=27	=27	=27	=27	=27	=27	=27
4.BBB-/_ 4.BB-_	4cc-/)	4a-\	.	2.r	.	.
.	(24b-/LL	8g-\	.	.	.	.
.	24cc-/	.	.	.	.	.
.	24b-/JJ	.	.	.	.	.
4BBB-/] 4BB-]	[4.f/) [4.dd-	8ryy	.	.	.	.
.	.	4ryy	.	.	.	.
8BBB-/ 8BB-	.	.	.	.	.	.
!!LO:LB:g=original
=28	=28	=28	=28	=28	=28	=28
*xywh-#3:158,6357,5781,1214	*xywh-#3:158,6357,5781,1214	*xywh-#3:158,6357,5781,1214	*	*xywh-#3:543,5642,5272,800	*	*
[4.BBB-/ [4.BB-	8f/] 8dd-]	8ryy	.	2.r	.	.
.	8r	8ryy	.	.	.	.
.	24f/LL	(8d-\	f <	.	.	.
.	24g-/	.	.	.	.	.
.	24f/JJ	.	.	.	.	.
4BBB-/] 4BB-]	[4.c-/) [4.e-/	4.ryy	[ sfz >	.	.	.
8GGGn/ 8GGn	.	.	]]	.	.	.
=29	=29	=29	=29	=29	=29	=29
[4.AAA-/ [4.AA-	8c-/] 8e-]	8ryy	.	2.r	.	.
.	8r	8ryy	.	.	.	.
.	(>24f/LL	&(<8d-\	.	.	.	.
.	24g-/	.	.	.	.	.
.	24f/JJ	.	.	.	.	.
!	!	!	!LO:DY:b	!	!	!
4AAA-/] 4AA-]	4.c-/&) 4.e-/	4.ryy	f >	.	.	.
8AAAn/ 8AAn	.	.	.	.	.	.
*	*v	*v	*	*	*	*
=30	=30	=30	=30	=30	=30
*tremolo	*	*	*	*	*
32BBB-/LLL	8B-/) 8dn	] pp	2.r	.	.
32BB-/	.	.	.	.	.
32BBB-/	.	.	.	.	.
32BB-/	.	.	.	.	.
32BBB-/	8r	.	.	.	.
32BB-/	.	.	.	.	.
32BBB-/	.	.	.	.	.
32BB-/	.	.	.	.	.
32BBB-/	8r	.	.	.	.
32BB-/	.	.	.	.	.
32BBB-/	.	.	.	.	.
32BB-/	.	.	.	.	.
*	*tremolo	*	*	*	*
32BBB-/	32d/LLL	<	.	.	.
32BB-/	32B-/	.	.	.	.
32BBB-/	32d/	.	.	.	.
32BB-/	32B-/	.	.	.	.
32BBB-/	32d/	.	.	.	.
32BB-/	32B-/	.	.	.	.
32BBB-/	32d/	.	.	.	.
32BB-/	32B-/	.	.	.	.
32BBB-/	32d/	.	.	.	.
32BB-/	32B-/	.	.	.	.
32BBB-/	32d/	.	.	.	.
32BB-/JJJ	32B-/JJJ	.	.	.	.
=31	=31	=31	=31	=31	=31
32BBB-/LLL	32cn/LLL 32e-	.	4r	.	.
32BB-/	32An/	.	.	.	.
32BBB-/	32c/ 32e-	.	.	.	.
32BB-/	32An/	.	.	.	.
32BBB-/	32c/ 32e-	.	.	.	.
32BB-/	32An/	.	.	.	.
32BBB-/	32c/ 32e-	.	.	.	.
32BB-/	32An/	.	.	.	.
32BBB-/	32c/ 32e-	.	8r	.	.
32BB-/	32An/	.	.	.	.
32BBB-/	32c/ 32e-	.	.	.	.
32BB-/	32An/JJJ	[	.	.	.
32BBB-/	32dn/LLL 32f	.	4r	.	.
32BB-/	32A-X/	.	.	.	.
32BBB-/	32d/ 32f	.	.	.	.
32BB-/	32A-X/	.	.	.	.
32BBB-/	32d/ 32f	.	.	.	.
32BB-/	32A-X/	.	.	.	.
32BBB-/	32d/ 32f	.	.	.	.
32BB-/	32A-X/	.	.	.	.
32BBB-/	32d/ 32f	.	8b-\	O	.
32BB-/	32A-X/	.	.	.	.
32BBB-/	32d/ 32f	.	.	.	.
32BB-/JJJ	32A-X/JJJ	.	.	.	.
*Xtremolo	*Xtremolo	*	*	*	*
!!LO:PB:g=original
=32||	=32||	=32||	=32||	=32||	=32||
*xywh-#4:498,1148,5400,1069	*xywh-#4:498,1148,5400,1069	*	*xywh-#4:548,353,5376,945	*	*
*ok[b-e-a-dngncn]	*ok[b-e-a-dngncn]	*	*ok[b-e-a-dngncn]	*	*
*k[b-e-a-]	*k[b-e-a-]	*	*k[b-e-a-]	*	*
!	!LO:TX:b:i:t=marc.	!LO:DY:rj	!LO:TX:a:i:t=espress. molto	!	!
4EE-:/ 4BB-: 4E-:	8G'/L	mf	[4.b-\	mój	.
.	8B-'/	.	.	.	.
8r	8e-'/J	.	.	.	.
4r	8g'/L	.	8b-/L]	.	.
.	8e-'/	.	8g/J	.	.
8r	8B-'/J	.	8f/	Ro-	.
=33	=33	=33	=33	=33	=33
4EE-:/ 4BB-: 4E-:	8G'/L	.	4.e-/	-lan-	.
.	8B-'/	.	.	.	.
8r	8e-'/J	.	.	.	.
4r	8g'/L	.	4e-/	-dzie,	.
.	8e-'/	.	.	.	.
8r	8B-'/J	.	8e-/	o	.
=34	=34	=34	=34	=34	=34
!	!	!LO:DY:rj	!	!	!LO:DY:a
4CC:/ 4GG: 4E-:	8G/L	p	[4.ee-\	mój	p
.	8c/	.	.	.	.
8r	8e-/J	.	.	.	.
4r	8g/L	.	8ee-\L]	.	.
.	8e-/	.	8dd\J	.	.
8r	8c/J	.	8g/	je-	.
=35	=35	=35	=35	=35	=35
4FF:/ 4C: 4F:	8A-/L	.	4.a-/	-dy-	.
.	8c/	.	.	.	.
8r	8f/J	.	.	.	.
4r	8a-/L	.	4a-/	-ny,	.
.	8f/	.	.	.	.
8r	8c/J	.	8g/	Ten	.
!!LO:LB:g=original
=36	=36	=36	=36	=36	=36
*xywh-#4:486,2917,5377,1041	*xywh-#4:486,2917,5377,1041	*	*xywh-#4:601,2163,5277,844	*	*
4FF:/ 4C: 4F:	8A-/L	<	4f/	głos	.
.	8c/	.	.	.	.
!	!	!	!	!	!LO:HP:a
8r	8f/J	.	8g/	jak	<
4r	8a-/L	.	8a-/	pta-	.
.	8f/	.	8g/	-szę	.
8r	8c/J	[	8a-/	po	[[
=37	=37	=37	=37	=37	=37
4AA-:/ 4C: 4E-:	8A-/L	.	4.cc\	nie-	.
.	8c/	.	.	.	.
8r	8e-/J	.	.	.	.
4r	8a-/L	.	4.e-/	-bie	.
.	8e-/	.	.	.	.
8r	8c/J	.	.	.	.
=38	=38	=38	=38	=38	=38
!	!	!	!	!	!LO:HP:a
4BB-:\ 4D: 4F:	8A-/L	p	8r	.	<
.	8B-/	.	8d/L	W_dal	.
8r	8d/J	.	8e-/J	.	.
4r	8f/L	.	8f/L	nie-	.
.	8d/	.	8g/J	.	[
!	!	!	!	!	!LO:HP:a
8r	8B-/J	.	8f/	-chaj	>
=39	=39	=39	=39	=39	=39
4FF:/ 4BB-: 4E-:	8G/L	.	(4b-/	le-	.
.	8B-/	.	.	.	.
8r	8e-/J	.	8g/)	.	]
4r	8g/L	.	4e-/	-ci,	.
.	8e-/	.	.	.	.
8r	8B-/J	.	8r	.	.
!!LO:LB:g=original
=40	=40	=40	=40	=40	=40
*xywh-#4:497,4628,5417,1188	*xywh-#4:497,4628,5417,1188	*	*xywh-#4:574,3899,5331,864	*	*
(4.EE-/ 4.E-	(>(<2.B-/ [<2.e- 2.g	p	8r	.	.
!	!	!	!LO:TX:a:i:t=poco string.	!	!
.	.	.	(8e-/L	w_gó-	.
.	.	.	8f/J	.	.
4.DD-X/) 4.D-X	.	.	8g/)	.	.
.	.	.	8a-/	-ry	.
.	.	.	8b-/	do-	.
=41	=41	=41	=41	=41	=41
(>(<4.CC/ 4.C	(>(<4.A-/)) 4.e-_< 4.a-	.	4.a-/	-li-	.
4.BBB-/)) 4.BB-	4.B-/)) 4.e-] 4.g-X	.	4.g-X/	-ny,	.
=42	=42	=42	=42	=42	=42
*	*^	*	*	*	*
*	*	*xywh-#4:497,4628,5417,1188	*	*	*	*
(4.AAAn/ 4.AAn	(2.e-/ 2.f	4.c\	.	8r	.	.
.	.	.	.	(8f/L	w_gó-	.
.	.	.	.	8gn/J	.	.
4.CC/ 4.C	.	4.An\	.	8an/)	.	.
.	.	.	.	8g/	-ry,	.
.	.	.	.	8a/	do-	.
*	*v	*v	*	*	*	*
=43	=43	=43	=43	=43	=43
4.BBB-/) 4.BB-	2.B-/) 2.d 2.f	.	4cc\	-li-	.
!	!	!	!	!	!LO:HP:a
.	.	.	8b-\	-ny,	<
(>(<4.AAA-X/ 4.AA-X	.	<	8b-\	Mo-	.
.	.	.	8cc\	-że	.
.	.	[[	8dd\	do-	[
!!LO:LB:g=original
=44	=44	=44	=44	=44	=44
*xywh-#4:582,6171,5377,1435	*xywh-#4:582,6171,5377,1435	*	*xywh-#4:608,5593,5351,810	*	*
8GGG\L)) 8GG	8B-/ 8e- 8b-	.	(>[>2.ee-\	-le-	.
!	!LO:TX:b:i:t=rit.	!	!	!	!
8G\	8r	.	.	.	.
8B-\J	8r	.	.	.	.
8r	8e-/L	.	.	.	.
4r	8g/	.	.	.	.
.	8b-/J	.	.	.	.
=45	=45	=45	=45	=45	=45
2.r	8ee-\	.	8ee-\L]	.	.
.	8r	.	8dd\	.	.
.	8r	.	8cc\J)	.	.
.	4r	.	8b-\	.	.
!	!	!	!LO:TX:a:i:t=dolce	!	!
.	.	.	8g/	-ci	.
.	8r	.	8f/	do	.
=46	=46	=46	=46	=46	=46
!	!	!	!	!	!LO:HP:a
4r	4r	.	(>[>2.cc\	cie-	>]
8r	8r	.	.	.	.
(>(<4.AAA-/ 4.AA-	[<4.A-/ [<4.c [>4.e-	pp	.	.	.
=47	=47	=47	=47	=47	=47
2.BBB-/)) 2.BB-	4.A-/_< 4.c] 4.e-]	.	4.cc\]	.	.
!	!	!	!LO:SIC:v:s=4.dn/)	!	!
.	4.A-/] 4.B- 4.d-X	.	4.d/)	.	.
=48||	=48||	=48||	=48||	=48||	=48||
*k[b-e-a-d-g-c-]	*k[b-e-a-d-g-c-]	*	*k[b-e-a-d-g-c-]	*	*
*	*^	*	*	*	*
*	*	*xywh-#4:582,6171,5377,1435	*	*	*	*
!	!	!	!	!LO:TX:a:i:t=a tempo	!	!
[2.EE-/ [2.BB-	4E-/ 4B- 4e-	4ryy	.	4e-/	-bie.	.
.	(24bb-/LL	8gg-\	pp	8r	.	.
.	24ccc-/	.	.	.	.	.
.	24bb-/JJ	.	.	.	.	.
.	4aa-/)	4ff\	.	4r	.	.
.	(24gg-/LL	8ee-\	.	8r	.	.
.	24aa-/	.	.	.	.	.
.	24gg-/JJ	.	.	.	.	.
!!LO:PB:g=original
=49	=49	=49	=49	=49	=49	=49
*xywh-#5:590,985,5264,1258	*xywh-#5:590,985,5264,1258	*xywh-#5:590,985,5264,1258	*	*xywh-#5:570,487,5413,600	*	*
4.EE-/_ 4.BB-_	4ff/)	4dd-\	.	2.r	.	.
.	(24ee-/LL	8cc-\	.	.	.	.
.	24ff/	.	.	.	.	.
.	24ee-/JJ	.	.	.	.	.
4EE-/] 4BB-]	[4.gg-/)	[4.b-\	.	.	.	.
8EE-/ 8BB-	.	.	.	.	.	.
=50	=50	=50	=50	=50	=50	=50
[2.EE-/ [2.BB-	8b-\] 8gg-\]	8ryy	.	2.r	.	.
.	8r	8r	.	.	.	.
.	(24b-/LL	8g-\	.	.	.	.
.	24cc-/	.	.	.	.	.
.	24b-/JJ	.	.	.	.	.
.	4a-/)	4f\	.	.	.	.
.	(24g-/LL	(8e-\	.	.	.	.
.	24a-/	.	.	.	.	.
.	24g-/JJ	.	.	.	.	.
=51	=51	=51	=51	=51	=51	=51
4.EE-/] 4.BB-]	4d-/) 4f/)	4ryy	.	2.r	.	.
.	(24e-/LL	(8c-\	.	.	.	.
.	24f/	.	.	.	.	.
.	24e-/JJ	.	.	.	.	.
4EE-/ 4BB-	4.B-/) 4.g-/)	4.ryy	.	.	.	.
8EE-/ 8BB-	.	.	.	.	.	.
=52	=52	=52	=52	=52	=52	=52
[4.EE-/ [4.BB-	8B-/ 8g-	8ryy	.	2.r	.	.
.	8r	8ryy	.	.	.	.
!	!	!	!LO:HP:a	!	!	!
.	(24e-/LL	(8c-\	<	.	.	.
.	24f/	.	.	.	.	.
.	24e-/JJ	.	.	.	.	.
4EE-/] 4BB-]	4a-/	4A-\	[	.	.	.
8EE-/ 8BB-	8e-/) 8g-/	8ryy	.	.	.	.
=53	=53	=53	=53	=53	=53	=53
[4.EE-/ [4.BB-	4f/	4d-\)	.	2.r	.	.
!	!	!	!LO:HP:a	!	!	!
.	(24e-/LL	(8c-\	<	.	.	.
.	24f/	.	.	.	.	.
.	24e-/JJ	.	.	.	.	.
4EE-/] 4BB-]	4a-/	4A-\	[	.	.	.
8EE-/ 8BB-	8e-/ 8g-	8ryy	.	.	.	.
!!LO:LB:g=original
=54	=54	=54	=54	=54	=54	=54
*xywh-#5:545,2794,5337,1202	*xywh-#5:545,2794,5337,1202	*xywh-#5:545,2794,5337,1202	*	*xywh-#5:584,2112,5265,896	*	*
!	!	!	!LO:HP:a	!	!	!
[4.EE-/ [4.BB-	4f/)	4d-\)	<	2.r	.	.
.	(24e-/LL	8c-\	.	.	.	.
.	24f/	.	.	.	.	.
.	24e-/JJ	.	.	.	.	.
4EE-/] 4BB-]	[4.B-/ [4.b-/)	4.ryy	.	.	.	.
8EE-/ 8BB-	.	.	.	.	.	.
=55	=55	=55	=55	=55	=55	=55
*	*	*^	*	*	*	*
*	*	*	*xywh-#5:545,2794,5337,1202	*	*	*	*
4EE-/ 4BB-	(4.b-/_	4.B-\_	4.ryy	[	2.r	.	.
8EE-/ 8BB-	.	.	.	.	.	.	.
!	!	!	!	!LO:HP:a	!	!	!
4EE-/ 4BB-	8b-/L]	4B-\]	4.dn/	>	.	.	.
.	8f/	.	.	.	.	.	.
.	8qa-/)	.	.	.	.	.	.
8EE-/ 8BB-	8g-/J	8A-\	.	.	.	.	.
*	*	*v	*v	*	*	*	*
*	*v	*v	*	*	*	*
=56	=56	=56	=56	=56	=56
8EE-/ 8BB-	8G-/ 8B- 8e-	]	2.r	.	.
8r	8r	.	.	.	.
8r	8r	.	.	.	.
*	*tremolo	*	*	*	*
!	!LO:TX:b:i:t=legg.	!LO:DY:rj	!	!	!
4EEE-/ 4EE-	32B-/LLL 32e-	p	.	.	.
.	32G-/	.	.	.	.
.	32B-/ 32e-	.	.	.	.
.	32G-/	.	.	.	.
.	32B-/ 32e-	.	.	.	.
.	32G-/	.	.	.	.
.	32B-/ 32e-	.	.	.	.
.	32G-/	.	.	.	.
8ryy	32B-/ 32e-	.	.	.	.
.	32G-/	.	.	.	.
.	32B-/ 32e-	.	.	.	.
.	32G-/JJJ	.	.	.	.
=57	=57	=57	=57	=57	=57
!	!	!	!LO:TX:a:i:t=poco string. più sonore	!	!
4EE-/ 4E-	32B-/LLL 32e-	.	4r	.	.
.	32G-/	.	.	.	.
.	32B-/ 32e-	.	.	.	.
.	32G-/	.	.	.	.
.	32B-/ 32e-	.	.	.	.
.	32G-/	.	.	.	.
.	32B-/ 32e-	.	.	.	.
.	32G-/	.	.	.	.
8r	32B-/ 32e-	.	8r	.	.
.	32G-/	.	.	.	.
.	32B-/ 32e-	.	.	.	.
.	32G-/	.	.	.	.
4DD-/ 4D-	32B-/ 32e-	.	4r	.	.
.	32G-/	.	.	.	.
.	32B-/ 32e-	.	.	.	.
.	32G-/	.	.	.	.
.	32B-/ 32e-	.	.	.	.
.	32G-/	.	.	.	.
.	32B-/ 32e-	.	.	.	.
.	32G-/	.	.	.	.
8r	32B-/ 32e-	.	8e-/	W_Sy-	.
.	32G-/	.	.	.	.
.	32B-/ 32e-	.	.	.	.
.	32G-/JJJ	.	.	.	.
=58	=58	=58	=58	=58	=58
4CC-/ 4C-	32c-/LLL 32e-	.	[4.f/	-ryj-	.
.	32A-/	.	.	.	.
.	32c-/ 32e-	.	.	.	.
.	32A-/	.	.	.	.
.	32c-/ 32e-	.	.	.	.
.	32A-/	.	.	.	.
.	32c-/ 32e-	.	.	.	.
.	32A-/	.	.	.	.
8r	32c-/ 32e-	.	.	.	.
.	32A-/	.	.	.	.
.	32c-/ 32e-	.	.	.	.
.	32A-/	.	.	.	.
4AAA-/ 4AA-	32c-/ 32e-	.	8f/L]	.	.
.	32A-/	.	.	.	.
.	32c-/ 32e-	.	.	.	.
.	32A-/	.	.	.	.
.	32c-/ 32e-	.	8g-/J	.	.
.	32A-/	.	.	.	.
.	32c-/ 32e-	.	.	.	.
.	32A-/	.	.	.	.
8r	32c-/ 32e-	.	8a-/	-skiej	.
.	32A-/	.	.	.	.
.	32c-/ 32e-	.	.	.	.
.	32A-/JJJ	.	.	.	.
!!LO:LB:g=original
=59	=59	=59	=59	=59	=59
*xywh-#5:449,4597,5483,1134	*xywh-#5:449,4597,5483,1134	*	*xywh-#5:597,3899,5224,829	*	*
4EEE-/ 4EE-	32B-/LLL 32e-	.	4.b-\	pu-	.
.	32G-/	.	.	.	.
.	32B-/ 32e-	.	.	.	.
.	32G-/	.	.	.	.
.	32B-/ 32e-	.	.	.	.
.	32G-/	.	.	.	.
.	32B-/ 32e-	.	.	.	.
.	32G-/	.	.	.	.
8r	32B-/ 32e-	.	.	.	.
.	32G-/	.	.	.	.
.	32B-/ 32e-	.	.	.	.
.	32G-/	.	.	.	.
4EE-/ 4E-	32B-/ 32e-	.	4b-\	-szczy,	.
.	32G-/	.	.	.	.
.	32B-/ 32e-	.	.	.	.
.	32G-/	.	.	.	.
.	32B-/ 32e-	.	.	.	.
.	32G-/	.	.	.	.
.	32B-/ 32e-	.	.	.	.
.	32G-/	.	.	.	.
8DD-/ 8D-	32B-/ 32e-	.	8e-/	wśród	.
.	32G-/	.	.	.	.
.	32B-/ 32e-	.	.	.	.
.	32G-/JJJ	.	.	.	.
=60	=60	=60	=60	=60	=60
4CC-/ 4C-	32c-/LLL 32e-	.	[4.f/	no-	.
.	32A-/	.	.	.	.
.	32c-/ 32e-	.	.	.	.
.	32A-/	.	.	.	.
.	32c-/ 32e-	.	.	.	.
.	32A-/	.	.	.	.
.	32c-/ 32e-	.	.	.	.
.	32A-/	.	.	.	.
8r	32c-/ 32e-	.	.	.	.
.	32A-/	.	.	.	.
.	32c-/ 32e-	.	.	.	.
.	32A-/	.	.	.	.
4AAA-/ 4AA-	32c-/ 32e-	.	8f/L]	.	.
.	32A-/	.	.	.	.
.	32c-/ 32e-	.	.	.	.
.	32A-/	.	.	.	.
.	32c-/ 32e-	.	8g-/J	.	.
.	32A-/	.	.	.	.
.	32c-/ 32e-	.	.	.	.
.	32A-/	.	.	.	.
8r	32c-/ 32e-	.	8a-/	-cnej	.
.	32A-/	.	.	.	.
.	32c-/ 32e-	.	.	.	.
.	32A-/JJJ	.	.	.	.
=61	=61	=61	=61	=61	=61
4EEE-/ 4EE-	32B-/LLL 32e-	.	4.b-\	ci-	.
.	32G-/	.	.	.	.
.	32B-/ 32e-	.	.	.	.
.	32G-/	.	.	.	.
.	32B-/ 32e-	.	.	.	.
.	32G-/	.	.	.	.
.	32B-/ 32e-	.	.	.	.
.	32G-/	.	.	.	.
8r	32B-/ 32e-	.	.	.	.
.	32G-/	.	.	.	.
.	32B-/ 32e-	.	.	.	.
.	32G-/	.	.	.	.
4EE-/ 4E-	32B-/ 32e-	.	4b-\	-szy,	.
.	32G-/	.	.	.	.
.	32B-/ 32e-	.	.	.	.
.	32G-/	.	.	.	.
.	32B-/ 32e-	.	.	.	.
.	32G-/	.	.	.	.
.	32B-/ 32e-	.	.	.	.
.	32G-/	.	.	.	.
8DD-/ 8D-	32B-/ 32e-	.	8r	.	.
.	32G-/	.	.	.	.
.	32B-/ 32e-	.	.	.	.
.	32G-/JJJ	.	.	.	.
=62	=62	=62	=62	=62	=62
*tremolo	*	*	*	*	*
!	!	!	!	!	!LO:HP:a:t=cresc. molto
32CC-/LLL	32c-/LLL 32e-	.	[4.b-\	Ro-	<
32C-/	32G-/	.	.	.	.
32CC-/	32c-/ 32e-	.	.	.	.
32C-/	32G-/	.	.	.	.
32CC-/	32c-/ 32e-	.	.	.	.
32C-/	32G-/	.	.	.	.
!	!	!LO:HP:t=cresc. molto	!	!	!
32CC-/	32c-/ 32e-	<	.	.	.
32C-/	32G-/	.	.	.	.
32CC-/	32c-/ 32e-	.	.	.	.
32C-/	32G-/	.	.	.	.
32CC-/	32c-/ 32e-	.	.	.	.
32C-/	32G-/JJJ	.	.	.	.
32CC-/	32c-/LLL 32e--	.	8b-\]	.	.
32C-/	32G-/	.	.	.	.
32CC-/	32c-/ 32e--	.	.	.	.
32C-/	32G-/	.	.	.	.
32CC-/	32c-/ 32e--	.	8a-/	-land	.
32C-/	32G-/	.	.	.	.
32CC-/	32c-/ 32e--	.	.	.	.
32C-/	32G-/	.	.	.	.
32CC-/	32c-/ 32e--	.	8g-/	wo-	.
32C-/	32G-/	.	.	.	.
32CC-/	32c-/ 32e--	.	.	.	.
32C-/JJJ	32G-/JJJ	.	.	.	.
=63	=63	=63	=63	=63	=63
32GGG-/LLL	32B-/LLL 32d-	.	4.b-\	-ła-	.
32GG-/	32G-/	.	.	.	.
32GGG-/	32B-/ 32d-	.	.	.	.
32GG-/	32G-/	.	.	.	.
32GGG-/	32B-/ 32d-	.	.	.	.
32GG-/	32G-/	.	.	.	.
32GGG-/	32B-/ 32d-	.	.	.	.
32GG-/	32G-/	.	.	.	.
32GGG-/	32B-/ 32d-	.	.	.	.
32GG-/	32G-/	.	.	.	.
32GGG-/	32B-/ 32d-	.	.	.	.
32GG-/	32G-/JJJ	.	.	.	.
32GGG-/	32d-/LLL 32g-	.	4b-\	-nie	.
32GG-/	32B-/	.	.	.	.
32GGG-/	32d-/ 32g-	.	.	.	.
32GG-/	32B-/	.	.	.	.
32GGG-/	32d-/ 32g-	.	.	.	.
32GG-/	32B-/	.	.	.	.
32GGG-/	32d-/ 32g-	.	.	.	.
32GG-/	32B-/	.	.	.	.
32GGG-/	32d-/ 32g-	.	8b-\	swej	.
32GG-/	32B-/	.	.	.	.
32GGG-/	32d-/ 32g-	.	.	.	.
32GG-/JJJ	32B-/JJJ	.	.	.	.
!!LO:LB:g=original
=64	=64	=64	=64	=64	=64
*xywh-#5:202,6328,5691,1185	*xywh-#5:202,6328,5691,1185	*	*xywh-#5:651,5549,5231,889	*	*
32AAA-/LLL	32c-/LLL 32f	.	[4.dd-\	lu-	.
32AA-/	32A-/	.	.	.	.
32AAA-/	32c-/ 32f	.	.	.	.
32AA-/	32A-/	.	.	.	.
32AAA-/	32c-/ 32f	.	.	.	.
32AA-/	32A-/	.	.	.	.
32AAA-/	32c-/ 32f	.	.	.	.
32AA-/JJJ	32A-/JJJ	.	.	.	.
32AAA-/LLL	32c-/LLL 32f	.	.	.	.
32AA-/	32A-/	.	.	.	.
32AAA-/	32c-/ 32f	.	.	.	.
32AA-/	32A-/	.	.	.	.
32AAA-/	32c-/ 32f	.	4dd-\]	.	.
32AA-/	32A-/	.	.	.	.
32AAA-/	32c-/ 32f	.	.	.	.
32AA-/JJJ	32A-/JJJ	.	.	.	.
32AAAn/LLL	32c-/LLL 32e-	.	.	.	.
32AAn/	32G-/	.	.	.	.
32AAA/	32c-/ 32e-	.	.	.	.
32AAn/	32G-/	.	.	.	.
32AAA/	32c-/ 32e-	.	8cc-\	-bej	.
32AAn/	32G-/	.	.	.	.
32AAA/	32c-/ 32e-	.	.	.	.
32AAn/JJJ	32G-/JJJ	.	.	.	.
=65	=65	=65	=65	=65	=65
32BBB-/LLL	32B-/LLL 32dn	.	8b-\	sły-	.
32BB-/	32F/	.	.	.	.
32BBB-/	32B-/ 32d	.	.	.	.
32BB-/	32F/	.	.	.	.
32BBB-/	32B-/ 32d	.	8b-\	-szy,	.
32BB-/	32F/	.	.	.	.
32BBB-/	32B-/ 32d	.	.	.	.
32BB-/	32F/	.	.	.	.
32BBB-/	32B-/ 32d	.	8r	.	.
32BB-/	32F/	.	.	.	.
32BBB-/	32B-/ 32d	.	.	.	.
32BB-/	32F/JJJ	.	.	.	.
!	!	!	!	!	!LO:HP:a
32BBB-/	32d/LLL 32f	.	8.b-\	Gierm-	<
32BB-/	32B-/	.	.	.	.
32BBB-/	32d/ 32f	.	.	.	.
32BB-/	32B-/	.	.	.	.
32BBB-/	32d/ 32f	.	.	.	.
32BB-/	32B-/	.	.	.	.
32BBB-/	32d/ 32f	.	16b-\	-ku	.
32BB-/	32B-/	.	.	.	.
32BBB-/	32d/ 32f	.	8b-\	daj	[[
32BB-/	32B-/	.	.	.	.
32BBB-/	32d/ 32f	.	.	.	.
32BB-/JJJ	32B-/JJJ	.	.	.	.
=66	=66	=66	=66	=66	=66
32AAAn/LLL	32e-/LLL 32f	f	4.ee-\	ko-	.
32AAn/	32cn/	.	.	.	.
32AAA/	32e-/ 32f	.	.	.	.
32AAn/	32cn/	.	.	.	.
32AAA/	32e-/ 32f	.	.	.	.
32AAn/	32cn/	.	.	.	.
32AAA/	32e-/ 32f	.	.	.	.
32AAn/	32cn/	.	.	.	.
32AAA/	32e-/ 32f	.	.	.	.
32AAn/	32cn/	.	.	.	.
32AAA/	32e-/ 32f	.	.	.	.
32AAn/	32cn/	.	.	.	.
32AAA/	32e-/ 32f	.	4f/	-nia!	.
32AAn/	32cn/	.	.	.	.
32AAA/	32e-/ 32f	.	.	.	.
32AAn/	32cn/	.	.	.	.
32AAA/	32e-/ 32f	.	.	.	.
32AAn/	32cn/	.	.	.	.
32AAA/	32e-/ 32f	.	.	.	.
32AAn/	32cn/	.	.	.	.
32AAA/	32e-/ 32f	.	32r	.	.
32AAn/	32cn/	.	32ee-\	Ma	.
32AAA/	32e-/ 32f	.	32ee-\	u-	.
32AAn/JJJ	32cn/JJJ	.	32ee-\	-ko-	.
=67	=67	=67	=67	=67	=67
!	!	!	!	!	!LO:HP:a
32BBB-/LLL	32f-X/LLL 32gn	<	2.ff-X\	-cha-	<[
32BB-/	32d-/	.	.	.	.
32BBB-/	32f-/ 32g	.	.	.	.
32BB-/	32d-/	.	.	.	.
32BBB-/	32f-/ 32g	.	.	.	.
32BB-/	32d-/	.	.	.	.
32BBB-/	32f-/ 32g	.	.	.	.
32BB-/	32d-/	.	.	.	.
32BBB-/	32f-/ 32g	.	.	.	.
32BB-/	32d-/	.	.	.	.
32BBB-/	32f-/ 32g	.	.	.	.
32BB-/	32d-/	.	.	.	.
32BBB-/	32f-/ 32g	.	.	.	.
32BB-/	32d-/	.	.	.	.
32BBB-/	32f-/ 32g	.	.	.	.
32BB-/	32d-/	.	.	.	.
32BBB-/	32f-/ 32g	.	.	.	.
32BB-/	32d-/	.	.	.	.
32BBB-/	32f-/ 32g	.	.	.	.
32BB-/	32d-/	.	.	.	.
32BBB-/	32f-/ 32g	.	.	.	.
32BB-/	32d-/	.	.	.	.
32BBB-/	32f-/ 32g	.	.	.	.
32BB-/JJJ	32d-/JJJ	[	.	.	.
*Xtremolo	*Xtremolo	*	*	*	*
!!LO:PB:g=original
=68	=68	=68	=68	=68	=68
*xywh-#6:366,1122,5593,1116	*xywh-#6:366,1122,5593,1116	*	*xywh-#6:444,330,5338,962	*	*
8BBB-/ 8BB-	8d-/ 8f-X 8gn	.	8gn/	-na	.
!	!	!	!	!	!LO:DY:a
8r	8r	.	8g/	ję-	p
8r	8r	.	16g/	-czy	.
.	.	.	16g/	w_nie-	.
4r	4r	.	8g/	-wo-	.
.	.	.	8g/	-li	.
8r	8r	.	16r	.	.
.	.	.	16g/	ty-	.
=69	=69	=69	=69	=69	=69
*	*^	*	*	*	*
*	*	*xywh-#6:366,1122,5593,1116	*	*	*	*
!	!	!	!	!LO:TX:a:i:t=a tempo	!	!
4r	4r	4ryy	.	8b-/	-ra-	.
.	.	.	.	8a-/	-na!	.
8r	(24fn/LL	(8d-\	<	8r	.	.
.	24g-/	.	.	.	.	.
.	24f/JJ	.	.	.	.	.
!	!	!	!LO:DY:t=sfz molto	!	!	!
4r	[>4.e-/)	[>4.c-\)	[ sfz	4r	.	.
!	!	!	!LO:DY:b	!	!	!
16r	.	.	sfz	8r	.	.
*Xtuplet	*	*	*	*	*	*
(48FF/LLL	.	.	<	.	.	.
48GG-/	.	.	.	.	.	.
48GGn/JJJ	.	.	.	.	.	.
=70	=70	=70	=70	=70	=70	=70
8AA-/)	8c-/] 8e-]	8ryy	[	2.r	.	.
8r	8r	8ryy	.	.	.	.
8r	(24f/LL	(8d-\	<	.	.	.
.	24g-/	.	.	.	.	.
.	24f/JJ	.	.	.	.	.
4r	[4.e-/)	[4.c-\)	[ sfz	.	.	.
16r	.	.	.	.	.	.
(48GG-/LLL	.	.	.	.	.	.
48GGn/	.	.	.	.	.	.
48AA-/JJJ	.	.	.	.	.	.
!!LO:LB:g=original
=71	=71	=71	=71	=71	=71	=71
*xywh-#6:405,2850,5391,1133	*xywh-#6:405,2850,5391,1133	*xywh-#6:405,2850,5391,1133	*	*xywh-#6:491,2196,5291,767	*	*
8AAn/)	8c-/] 8e-]	8ryy	.	2.r	.	.
8r	8r	8ryy	.	.	.	.
8r	(24f/LL	(8d-\	<	.	.	.
.	24g-/	.	.	.	.	.
.	24f/JJ	.	.	.	.	.
4r	[4.e-/)	[4.c-\)	[ sfz	.	.	.
32r	.	.	.	.	.	.
(32GGn/LLL	.	.	.	.	.	.
32AA-X/	.	.	.	.	.	.
32AAn/JJJ	.	.	.	.	.	.
*	*v	*v	*	*	*	*
=72	=72	=72	=72	=72	=72
8BB-/)	8c-/] 8e-]	.	2.r	.	.
8r	8r	.	.	.	.
8r	8r	.	.	.	.
*tremolo	*tremolo	*	*	*	*
32BB-\LLL	32dn/LLL	p	.	.	.
32B-\	32B-/	.	.	.	.
32BB-\	32d/	.	.	.	.
32B-\	32B-/	.	.	.	.
32BB-\	32d/	.	.	.	.
32B-\	32B-/	.	.	.	.
32BB-\	32d/	.	.	.	.
32B-\	32B-/	.	.	.	.
32BB-\	32d/	.	.	.	.
32B-\	32B-/	.	.	.	.
32BB-\	32d/	.	.	.	.
32B-\JJJ	32B-/JJJ	.	.	.	.
=73	=73	=73	=73	=73	=73
32BB-\LLL	32e-/LLL	.	2.r	.	.
32Gn\	32c-/	.	.	.	.
32BB-\	32e-/	.	.	.	.
32Gn\	32c-/	.	.	.	.
32BB-\	32e-/	.	.	.	.
32Gn\	32c-/	.	.	.	.
32BB-\	32e-/	.	.	.	.
32Gn\	32c-/	.	.	.	.
32BB-\	32e-/	.	.	.	.
32Gn\	32c-/	.	.	.	.
32BB-\	32e-/	.	.	.	.
32Gn\JJJ	32c-/JJJ	.	.	.	.
32BB-\LLL	32en/LLL	.	.	.	.
32G-X\	32cn/	.	.	.	.
32BB-\	32e/	.	.	.	.
32G-X\	32cn/	.	.	.	.
32BB-\	32e/	.	.	.	.
32G-X\	32cn/	.	.	.	.
32BB-\	32e/	.	.	.	.
32G-X\	32cn/	.	.	.	.
32BB-\	32e/	.	.	.	.
32G-X\	32cn/	.	.	.	.
32BB-\	32e/	.	.	.	.
32G-X\JJJ	32cn/JJJ	.	.	.	.
=74	=74	=74	=74	=74	=74
32BB-\LLL	32f/LLL	.	2.r	.	.
32F\	32d-/	.	.	.	.
32BB-\	32f/	.	.	.	.
32F\	32d-/	.	.	.	.
32BB-\	32f/	.	.	.	.
32F\	32d-/	.	.	.	.
32BB-\	32f/	.	.	.	.
32F\	32d-/	.	.	.	.
32BB-\	32f/	.	.	.	.
32F\	32d-/	.	.	.	.
32BB-\	32f/	.	.	.	.
32F\	32d-/	.	.	.	.
32BB-\	32f/	.	.	.	.
32F\	32d-/	.	.	.	.
32BB-\	32f/	.	.	.	.
32F\	32d-/	.	.	.	.
32BB-\	32f/	.	.	.	.
32F\	32d-/	.	.	.	.
32BB-\	32f/	.	.	.	.
32F\	32d-/	.	.	.	.
32BB-\	32f/	.	.	.	.
32F\	32d-/	.	.	.	.
32BB-\	32f/	.	.	.	.
32F\JJJ	32d-/JJJ	.	.	.	.
=75	=75	=75	=75	=75	=75
32BB-\LLL	32f#X/LLL	.	4r	.	.
32F-X\	32dn/	.	.	.	.
32BB-\	32f#/	.	.	.	.
32F-X\	32dn/	.	.	.	.
32BB-\	32f#/	.	.	.	.
32F-X\	32dn/	.	.	.	.
32BB-\	32f#/	.	.	.	.
32F-X\	32dn/	.	.	.	.
32BB-\	32f#/	.	8r	.	.
32F-X\	32dn/	.	.	.	.
32BB-\	32f#/	.	.	.	.
32F-X\	32dn/	.	.	.	.
32BB-\	32f#/	.	4r	.	.
32F-X\	32dn/	.	.	.	.
32BB-\	32f#/	.	.	.	.
32F-X\	32dn/	.	.	.	.
32BB-\	32f#/	.	.	.	.
32F-X\	32dn/	.	.	.	.
32BB-\	32f#/	.	.	.	.
32F-X\	32dn/	.	.	.	.
32BB-\	32f#/	.	8b-\	Prze-	.
32F-X\	32dn/	.	.	.	.
32BB-\	32f#/	.	.	.	.
32F-X\JJJ	32dn/JJJ	.	.	.	.
*Xtremolo	*Xtremolo	*	*	*	*
!!LO:LB:g=original
=76||	=76||	=76||	=76||	=76||	=76||
*xywh-#6:360,4539,5464,1211	*xywh-#6:360,4539,5464,1211	*	*xywh-#6:478,3933,5264,801	*	*
*ok[b-e-a-dngncn]	*ok[b-e-a-dngncn]	*	*ok[b-e-a-dngncn]	*	*
*k[b-e-a-]	*k[b-e-a-]	*	*k[b-e-a-]	*	*
!	!	!	!LO:TX:a:i:t=con gran. espress.	!	!
4EE-:/ 4BB-: 4E-:	(16G:/LL 16e-: 16g:	.	[4.b-\	-le-	.
.	16B-/	.	.	.	.
.	16e-/	.	.	.	.
.	16g/	.	.	.	.
!	!LO:TX:b:i:t=legg.	!	!	!	!
8r	16b-/	.	.	.	.
.	16ee-/JJ	.	.	.	.
4r	16gg/LL	.	8b-/L]	.	.
.	16ee-/	.	.	.	.
.	16b-/	.	8g/J	.	.
.	16g/	.	.	.	.
8r	16e-/	.	8f/	-ciał	.
.	16B-/JJ)	.	.	.	.
=77	=77	=77	=77	=77	=77
4EE-/ 4BB- 4E-	(16G/LL	.	4.e-/	gó-	.
.	16B-/	.	.	.	.
.	16e-/	.	.	.	.
.	16g/	.	.	.	.
8r	16b-/	.	.	.	.
.	16ee-/JJ	.	.	.	.
4r	16gg/LL	.	4e-/	-ry,	.
.	16ee-/	.	.	.	.
.	16cc/	.	.	.	.
.	16g/	.	.	.	.
!	!	!	!	!	!LO:DY:a
8r	16e-/	.	8e-/	prze-	p
.	16c/JJ)	.	.	.	.
=78	=78	=78	=78	=78	=78
4CC:/ 4GG: 4E-:	(16G/LL	pp	[4.ee-\	-pły-	.
.	16c/	.	.	.	.
.	16e-/	.	.	.	.
.	16g/	.	.	.	.
8r	16cc/	.	.	.	.
.	16ee-/JJ	.	.	.	.
4r	16gg/LL	.	8ee-\L]	.	.
.	16ee-/	.	.	.	.
.	16cc/	.	8dd\J	.	.
.	16g/	.	.	.	.
8r	16e-/	.	8g/	-nął	.
.	16c/JJ)	.	.	.	.
!!LO:LB:g=original
=79	=79	=79	=79	=79	=79
*xywh-#6:399,6244,5436,1166	*xywh-#6:399,6244,5436,1166	*	*xywh-#6:484,5581,5278,861	*	*
4FF:/ 4C: 4F:	(16A-/LL	.	4.a-/	mo-	.
.	16c/	.	.	.	.
.	16f/	.	.	.	.
.	16a-/	.	.	.	.
8r	16cc/	.	.	.	.
.	16ff/JJ	.	.	.	.
4r	16aa-/LL	.	4a-/	-rza,	.
.	16ff/	.	.	.	.
.	16cc/	.	.	.	.
.	16a-/	.	.	.	.
8r	16f/	.	8g/	prze-	.
.	16c/JJ)	.	.	.	.
=80	=80	=80	=80	=80	=80
4FF:/ 4C: 4F:	(16A-/LL	.	4f/	-ła-	.
.	16c/	<	.	.	.
.	16f/	.	.	.	.
.	16a-/	.	.	.	.
8r	16cc/	.	8g/	-mał	.
.	16ff/JJ	.	.	.	.
!	!	!	!	!	!LO:HP:a
4r	16aa-/LL	.	8a-/	mu-	<
.	16ff/	.	.	.	.
.	16cc/	.	8g/	-ry	.
.	16a-/	.	.	.	.
8r	16f/	[	8a-/	i	[[
.	16c/JJ)	.	.	.	.
=81	=81	=81	=81	=81	=81
4AA-:/ 4C: 4E-:	(16A-/LL	p	4.cc\	kra-	.
.	16c/	.	.	.	.
.	16e-/	.	.	.	.
.	16a-/	.	.	.	.
8r	16cc/	.	.	.	.
.	16ee-/JJ	.	.	.	.
4r	16aa-/LL	.	4e-/	-ty.	.
.	16ee-/	.	.	.	.
.	16cc/	.	.	.	.
.	16a-/	.	.	.	.
8r	16e-/	.	8r	.	.
.	16c/JJ)	.	.	.	.
!!LO:PB:g=original
=82	=82	=82	=82	=82	=82
*xywh-#7:514,997,5342,1241	*xywh-#7:514,997,5342,1241	*	*xywh-#7:569,278,5272,923	*	*
4BB-\ 4D 4F	(>16A-/LL	p	8r	.	.
.	16B-/	.	.	.	.
!	!	!	!	!	!LO:HP:a
.	16d/	.	8d/L	mu-	<
.	16f/	.	.	.	.
8r	16a-/	.	8e-/J	.	.
.	16b-/JJ	.	.	.	.
4r	16dd\LL	.	8f/L	-ry	.
.	16ff\	.	.	.	.
.	16aa-\	.	8g/J	.	[
.	16ff\	.	.	.	.
8r	16dd\	.	8f/	i	.
.	16a-\JJ)	.	.	.	.
=83	=83	=83	=83	=83	=83
4E-:\ 4G: 4B-:	(16g\LL	.	(4b-/	kra-	.
.	16e-\	.	.	.	.
.	16g\	.	.	.	.
.	16b-\	.	.	.	.
8r	16ee-\	.	8g/)	.	.
.	16ff\JJ	.	.	.	.
4r	16gg\LL	.	4e-/	-ty,	.
.	16bb-\	.	.	.	.
.	16gg\	.	.	.	.
.	16ee-\	.	.	.	.
8r	16b-\	.	8r	.	.
.	16g\JJ)	.	.	.	.
=84	=84	=84	=84	=84	=84
(<4.EE-/ 4.E-	2.B-/ 2.e- 2.g	pp	8r	.	.
!	!	!	!LO:TX:a:i:t=poco string.	!	!
.	.	.	(8e-/L	Męz-	.
.	.	.	8f/J	.	.
!LO:TX:a:i:t=poco string.	!	!	!	!	!
4.DD-X/) 4.D-X	.	.	8g/)	.	.
.	.	.	8a-/	-two	.
.	.	.	8b-/	ry-	.
=85	=85	=85	=85	=85	=85
(<4.CC/ 4.C	(>4.A-/ 4.e- 4.a-	.	4.a-/	-ce-	.
4.BBB-/) 4.BB-	4.B-/) 4.e- 4.g-X	.	4.g-X/	-rza	.
!!LO:LB:g=original
=86	=86	=86	=86	=86	=86
*	*^	*	*	*	*
*xywh-#7:537,2671,5326,1337	*xywh-#7:537,2671,5326,1337	*xywh-#7:537,2671,5326,1337	*	*xywh-#7:575,2098,5224,876	*	*
(<4.AAAn/ 4.AAn	2.e-/ 2.f	(<4.c\	.	8r	.	.
.	.	.	.	8f/L	Klo-	.
.	.	.	.	8gn/J	.	.
4.CC/) 4.C	.	4.An\)	.	8an/L	-ryn-	.
.	.	.	.	8g/J	.	.
.	.	.	.	8a/	-da	.
*	*v	*v	*	*	*	*
=87	=87	=87	=87	=87	=87
(<4.BBB-/ 4.BB-	2.B-/ 2.d 2.f	<[	4ee-\	ho-	.
!	!	!	!	!	!LO:HP:a
.	.	.	([8b-\	-ża	<
4.AAA-X/ 4.AA-X	.	.	8b-\L]	.	.
.	.	.	8cc\J)	.	.
.	.	.	8dd\	W_mi-	[[
=88	=88	=88	=88	=88	=88
16GGG/LL) 16GG	8B-/ 8e- 8b-	.	[2.ee-\	-ło-	.
16G/	.	.	.	.	.
16B-/	16r	.	.	.	.
16e->\	16ryy	.	.	.	.
!	!LO:TX:b:i:t=rit.	!	!	!	!
16g>\	16ryy	.	.	.	.
16b->\JJ	16ryy	.	.	.	.
4.ryy	16ee-\LL	.	.	.	.
.	16gg\	.	.	.	.
.	16bb-\	.	.	.	.
*	*8va	*	*	*	*
.	16eee-\	.	.	.	.
.	16ggg\	.	.	.	.
.	16bbb-\JJ	.	.	.	.
=89	=89	=89	=89	=89	=89
2.r	8eeee-\	.	8ee-\]	.	.
*	*X8va	*	*	*	*
.	8r	.	8dd\	-ści	.
.	8r	.	8cc\	u-	.
.	4r	.	8b-/L	-wień-	.
.	.	.	8a-/J	.	.
.	8r	.	8g/	-czy	.
!!LO:LB:g=original
=90	=90	=90	=90	=90	=90
*xywh-#7:525,4356,5359,1365	*xywh-#7:525,4356,5359,1365	*	*xywh-#7:589,3817,5198,869	*	*
4r	4r	.	(>[>2.cc\	kwia-	.
8r	8r	.	.	.	.
((4.AAA-/ 4.AA-	[<4.A-/ [<4.c [>4.e-	pp	.	.	.
=91	=91	=91	=91	=91	=91
2.BBB-/)) 2.BB-	4.A-/_ 4.c] (>4.e-]	.	4.cc\]	.	.
.	4.A-/] 4.B- 4.d)	.	4.d/)	.	.
=92||	=92||	=92||	=92||	=92||	=92||
*k[b-e-a-d-g-c-]	*k[b-e-a-d-g-c-]	*	*k[b-e-a-d-g-c-]	*	*
*	*^	*	*	*	*
*	*	*xywh-#7:525,4356,5359,1365	*	*	*	*
!	!	!	!	!LO:TX:a:i:t=a tempo	!	!
[2.EE-/ [2.BB-	4G-/ 4B- 4e-	4ryy	.	4e-/	-ty	.
.	(24bb-/LL	(8gg-\	pp	8r	.	.
.	24ccc-/	.	.	.	.	.
.	24bb-/JJ	.	.	.	.	.
.	4aa-/)	4ff\)	.	4r	.	.
.	(24gg-/LL	(8ee-\	.	8r	.	.
.	24aa-/	.	.	.	.	.
.	24gg-/JJ	.	.	.	.	.
=93	=93	=93	=93	=93	=93	=93
4.EE-/_ 4.BB-_	4ff/)	4dd-\)	.	2.r	.	.
.	(24ee-/LL	(8cc-\	.	.	.	.
.	24ff/	.	.	.	.	.
.	24ee-/JJ	.	.	.	.	.
4EE-/] 4BB-]	[>4.gg-/)	[<4.b-\)	.	.	.	.
8EE-/ 8BB-	.	.	.	.	.	.
=94	=94	=94	=94	=94	=94	=94
!	!LO:N:vis=4	!LO:N:vis=4	!	!	!	!
[2.EE-/ [2.BB-	8gg-/]	8b-\]	.	2.r	.	.
.	8r	8r	.	.	.	.
.	(24b-/LL	(8g-\	.	.	.	.
.	24cc-/	.	.	.	.	.
.	24b-/JJ	.	.	.	.	.
.	4a-/)	4f\)	.	.	.	.
.	(24g-/LL	(8e-\	.	.	.	.
.	24a-/	.	.	.	.	.
.	24g-/JJ	.	.	.	.	.
!!LO:LB:g=original
=95	=95	=95	=95	=95	=95	=95
*xywh-#7:138,6177,6028,1646	*xywh-#7:138,6177,6028,1646	*xywh-#7:138,6177,6028,1646	*	*xywh-#7:494,5651,5528,620	*	*
4.EE-/_ 4.BB-_	4f/)	4d-\)	pp	2.r	.	.
.	(24e-/LL	(8c-\	>	.	.	.
.	24f/	.	.	.	.	.
.	24e-/JJ	.	.	.	.	.
4EE-/] 4BB-]	[4.B-/)) [4.g-	8ryy	]	.	.	.
.	.	4ryy	.	.	.	.
8EE-/ 8BB-	.	.	.	.	.	.
*	*v	*v	*	*	*	*
=96	=96	=96	=96	=96	=96
8EE-/ 8BB-	8B-/] 8g-]	.	2.r	.	.
16r	8r	.	.	.	.
*ped	*	*	*	*	*
16EE-/LL	.	.	.	.	.
16GG-/	8r	.	.	.	.
16BB-/JJ	.	.	.	.	.
4r	16E-</LL	.	.	.	.
.	16G-</	.	.	.	.
.	16B-</	.	.	.	.
.	16e-/	.	.	.	.
8r	16B-</	.	.	.	.
.	16G-</JJ	.	.	.	.
=97	=97	=97	=97	=97	=97
*	*tuplet	*	*	*	*
!	!LO:TUP:a:problem=klamra łukowa	!	!	!	!
2.r	24E-</LL	.	2.r	.	.
.	24G-</	.	.	.	.
.	24B-</JJ	.	.	.	.
*	*Xtuplet	*	*	*	*
.	24e-/LL	.	.	.	.
.	24g-/	.	.	.	.
.	24b-/JJ	.	.	.	.
.	24ee-\LL	.	.	.	.
.	24b-\	.	.	.	.
.	24g-\JJ	.	.	.	.
.	24e-/LL	.	.	.	.
.	24g-/	.	.	.	.
.	24b-/JJ	.	.	.	.
.	24ee-\LL	.	.	.	.
.	24gg-\	.	.	.	.
.	24bb-\JJ	.	.	.	.
*	*8va	*	*	*	*
.	24eee-\LL	.	.	.	.
.	24ggg-\	.	.	.	.
.	24bbb-\JJ	.	.	.	.
=98	=98	=98	=98	=98	=98
*	*	*	*	*	*
4r	8eeee-\	.	2.ryy	.	.
*	*X8va	*	*	*	*
.	8r	.	.	.	.
8r	8r	.	.	.	.
8EE-/ 8E-	8G-/ 8B- 8e-	.	.	.	.
8r	8r	.	.	.	.
8r	8r	.	.	.	.
=99	=99	=99	=99	=99	=99
8EEE-/ 8EE-	8G-/ 8B- 8e-	.	2.r	.	.
8r	8r	.	.	.	.
8r	8r	.	.	.	.
4r	4r	.	.	.	.
8r	8r	.	.	.	.
==	==	==	==	==	==
*-	*-	*-	*-	*-	*-
!!!system-decoration: s1{(s2,s3)}
!!!RDF**kern: < = below
!!!RDF**kern: > = above
!!!ENC: Berenika Jozajtis
!!!END: 2022-02-17
!!!ENC: Marta Chmielewska
!!!END: 2022-02-18
!!!ENC-iiif: Antoni Szymański
!!!END-iiif: 2022-09-04
!!!YEC: Copyright 2022 Narodowy Instytut Fryderyka Chopina (https://polishscores.org)
!!!YEM: Licence CC BY 4.0 (https://creativecommons.org/licenses/by/4.0)
!!!IIIF: https://polona.pl/iiif/item/NjU5MjI0NzU/manifest.json
